icons/white/temple_run.svg

<?xml version="1.0" encoding="UTF-8"?><svg id="a" xmlns="http://www.w3.org/2000/svg" viewBox="0 0 48 48"><defs><style>.b{fill:none;stroke:#fff;stroke-linecap:round;stroke-linejoin:round;}</style></defs><circle class="b" cx="13.5896" cy="11.9026" r="4.7989"/><path class="b" d="M21.8621,5.504c-.8227,5.9872-1.234,8.3181-1.234,12.7971,0,2.6508,1.4422,4.1591,3.3719,4.1591"/><path class="b" d="M13.4525,42.504v-17.3472c0-1.3254.5484-2.6508,1.3711-3.2907-1.8739.0457-3.1536,1.5082-3.4278,3.0165,0-3.1079.0457-4.7532.3656-6.1243-2.5594,1.3254-3.3364,2.1938-3.6106,4.022.0457-2.468.6399-3.6106.6399-3.6106,0,0-3.2907,1.8282-3.2907,6.2158v14.4882"/><path class="b" d="M20.6293,17.8897c-2.195,0-4.6587,2.466-3.0819,5.6424"/><path class="b" d="M13.4525,26.1622c1.851-1.8053,4.87-3.702,10.5475-3.702"/><path class="b" d="M13.4525,30.8215c2.6965-2.2217,5.5404-3.8366,10.5475-3.8366"/><path class="b" d="M13.4525,40.3915c3.8848-2.1024,8.6482-2.1633,10.5475-2.1633"/><path class="b" d="M18.2111,27.9335c0,3.3476-.2339,6.8821,2.8435,6.8821s2.9454-4.4181,2.9454-7.8306"/><path class="b" d="M18.2265,30.5271c0,2.2623-.4778,4.5018-1.529,4.5018s-1.1639-1.8435-1.1639-5.7435"/><path class="b" d="M13.4525,36.4457c1.0055.2514,2.1198-.9841,2.1198-4.5026"/><line class="b" x1="20.4025" y1="22.7517" x2="19.4169" y2="21.9803"/><circle class="b" cx="13.5896" cy="11.9026" r="1.493"/><path class="b" d="M38.5,5.5041H9.5c-2.2091,0-4,1.7909-4,4v29c0,2.2091,1.7909,4,4,4h29c2.2091,0,4-1.7909,4-4V9.5041c0-2.2091-1.7909-4-4-4Z"/><path class="b" d="M19.731,38.4851c0-1.3386.4705-2.3136,2.0244-2.3136s1.7976,1.4202,1.7976,2.0584"/><path class="b" d="M15.2208,39.5867c0-1.709.1209-2.5012,1.8267-2.8372,1.9137-.3769,2.4532,1.7355,2.4532,1.7355"/><path class="b" d="M15.2208,39.066c-.1686-.8112-1.0027-1.4549-1.7682-1.2264"/><circle class="b" cx="34.4104" cy="11.9026" r="4.7989"/><path class="b" d="M26.1379,5.504c.8227,5.9872,1.234,8.3181,1.234,12.7971,0,2.6508-1.4422,4.1591-3.3719,4.1591"/><path class="b" d="M34.5475,42.504s0-16.0218,0-17.3472-.5484-2.6508-1.3711-3.2907c1.8739.0457,3.1536,1.5082,3.4278,3.0165,0-3.1079-.0457-4.7532-.3656-6.1243,2.5594,1.3254,3.3364,2.1938,3.6106,4.022-.0457-2.468-.6399-3.6106-.6399-3.6106,0,0,3.2907,1.8282,3.2907,6.2158,0,4.3876,0,14.4882,0,14.4882"/><path class="b" d="M27.3707,17.8897c2.195,0,4.6587,2.466,3.0819,5.6424"/><path class="b" d="M34.5475,26.1622c-1.851-1.8053-4.87-3.702-10.5475-3.702"/><path class="b" d="M34.5475,30.8215c-2.6965-2.2217-5.5404-3.8366-10.5475-3.8366"/><path class="b" d="M34.5475,40.3915c-3.8848-2.1024-8.6482-2.1633-10.5475-2.1633"/><path class="b" d="M29.7889,27.9335c0,3.3476.2339,6.8821-2.8435,6.8821-3.0774,0-2.9454-4.4181-2.9454-7.8306"/><path class="b" d="M29.7735,30.5271c0,2.2623.4778,4.5018,1.529,4.5018s1.1639-1.8435,1.1639-5.7435"/><path class="b" d="M34.5475,36.4457c-1.0055.2514-2.1198-.9841-2.1198-4.5026"/><line class="b" x1="27.5975" y1="22.7517" x2="28.5831" y2="21.9803"/><circle class="b" cx="34.4104" cy="11.9026" r="1.493"/><path class="b" d="M28.269,38.4851c0-1.3386-.4705-2.3136-2.0244-2.3136s-1.7976,1.4202-1.7976,2.0584"/><path class="b" d="M32.7792,39.5867c0-1.709-.1209-2.5012-1.8267-2.8372-1.9137-.3769-2.4532,1.7355-2.4532,1.7355"/><path class="b" d="M32.7792,39.066c.1686-.8112,1.0027-1.4549,1.7682-1.2264"/></svg>

<svg xmlns="http://www.w3.org/2000/svg" viewBox="0 0 48 48"><defs><style>.a{fill:none;stroke:#fff;stroke-linecap:round;stroke-linejoin:round;}</style></defs><circle class="a" cx="13.5896" cy="11.9026" r="4.7989"/><path class="a" d="M21.8621,5.504c-.8227,5.9872-1.234,8.3181-1.234,12.7971C20.6281,20.952,22.07,22.46,24,22.46"/><path class="a" d="M13.4525,42.504V25.1568a4.3158,4.3158,0,0,1,1.3711-3.2907,3.6257,3.6257,0,0,0-3.4278,3.0164,28.4487,28.4487,0,0,1,.3657-6.1243C9.202,20.0836,8.4251,20.952,8.1508,22.78a8.8505,8.8505,0,0,1,.64-3.6106A7.1918,7.1918,0,0,0,5.5,25.3853V39.8735"/><path class="a" d="M20.6293,17.89a3.738,3.738,0,0,0-3.0819,5.6424"/><path class="a" d="M13.4525,26.1622c1.851-1.8053,4.87-3.702,10.5475-3.702"/><path class="a" d="M13.4525,30.8215A15.0106,15.0106,0,0,1,24,26.9849"/><path class="a" d="M13.4525,40.3915C17.3374,38.2891,22.1007,38.2281,24,38.2281"/><path class="a" d="M18.2111,27.9335c0,3.3476-.2339,6.8821,2.8435,6.8821S24,30.3975,24,26.9849"/><path class="a" d="M18.2265,30.5271c0,2.2622-.4778,4.5017-1.529,4.5017s-1.1639-1.8434-1.1639-5.7435"/><path class="a" d="M13.4525,36.4457c1.0055.2513,2.12-.9841,2.12-4.5026"/><line class="a" x1="20.4025" y1="22.7517" x2="19.4169" y2="21.9803"/><circle class="a" cx="13.5896" cy="11.9026" r="1.493"/><path class="a" d="M40.5,5.504H7.5a2,2,0,0,0-2,2v33a2,2,0,0,0,2,2h33a2,2,0,0,0,2-2v-33A2,2,0,0,0,40.5,5.504Z"/><path class="a" d="M19.731,38.4851c0-1.3386.47-2.3137,2.0244-2.3137A1.84,1.84,0,0,1,23.553,38.23"/><path class="a" d="M15.2208,39.5867c0-1.709.1208-2.5012,1.8267-2.8372,1.9137-.3769,2.4532,1.7356,2.4532,1.7356"/><path class="a" d="M15.2208,39.066A1.5151,1.5151,0,0,0,13.4525,37.84"/><circle class="a" cx="34.4104" cy="11.9026" r="4.7989"/><path class="a" d="M26.1379,5.504c.8227,5.9872,1.234,8.3181,1.234,12.7971C27.3719,20.952,25.93,22.46,24,22.46"/><path class="a" d="M34.5475,42.504V25.1568a4.3158,4.3158,0,0,0-1.3711-3.2907,3.6257,3.6257,0,0,1,3.4278,3.0164,28.4487,28.4487,0,0,0-.3657-6.1243c2.56,1.3254,3.3364,2.1938,3.6107,4.0219a8.8505,8.8505,0,0,0-.64-3.6106A7.1918,7.1918,0,0,1,42.5,25.3853V39.8735"/><path class="a" d="M27.3707,17.89a3.738,3.738,0,0,1,3.0819,5.6424"/><path class="a" d="M34.5475,26.1622C32.6965,24.3569,29.6775,22.46,24,22.46"/><path class="a" d="M34.5475,30.8215A15.0106,15.0106,0,0,0,24,26.9849"/><path class="a" d="M34.5475,40.3915C30.6626,38.2891,25.8993,38.2281,24,38.2281"/><path class="a" d="M29.7889,27.9335c0,3.3476.2339,6.8821-2.8435,6.8821S24,30.3975,24,26.9849"/><path class="a" d="M29.7735,30.5271c0,2.2622.4778,4.5017,1.529,4.5017s1.1639-1.8434,1.1639-5.7435"/><path class="a" d="M34.5475,36.4457c-1.0055.2513-2.12-.9841-2.12-4.5026"/><line class="a" x1="27.5975" y1="22.7517" x2="28.5831" y2="21.9803"/><circle class="a" cx="34.4104" cy="11.9026" r="1.493"/><path class="a" d="M28.269,38.4851c0-1.3386-.47-2.3137-2.0244-2.3137A1.84,1.84,0,0,0,24.447,38.23"/><path class="a" d="M32.7792,39.5867c0-1.709-.1208-2.5012-1.8267-2.8372-1.9137-.3769-2.4532,1.7356-2.4532,1.7356"/><path class="a" d="M32.7792,39.066A1.5151,1.5151,0,0,1,34.5475,37.84"/></svg>
